X:52
T:Gabio,The. WCa.52
T:Gobbeo,aka. WCa.52
M:6/8
L:1/8
Q:3/8=120
C:”Wm Calvert”
S:Wm. Calvert MS, 1812, Leyburn, Yorks.
R:.jig
O:England
A:North Yorkshire
Z:vmp.Chris Partington, May 2003
K:C
B|c2A AcA|E2A ABA|cdc cBA|dBG GAB|!
cdc cBA|Bcd efg|edc BAG|E2AA2:|!
|:”_rest added”z|A2Bc2d|e2fg3|gag gfe|dBG GAB|!
cdc cBA|Bcd efg|edc BAG|E2AA2:|

